X: 37791
T: Sonja's
R: reel
M: 4/4
K: Dmajor
Ac|d2Ad BcdB|AFEF EDB,D|FGAF G2FG|AdAF E2Ac|
d2Ad BcdB|AFEF EDB,D|FGAF G2FG|AFEF D2:|
|:A,2|B,2DB, EB,DB,|A,B,DE FEDE|FAAB AFdA|BAFD EDCD|
B,2DB, EB,DB,|A,B,DE FEDE|FGAF G2FG|AFEF D2:|

